static/images/pieces/makruk/ada/wB.svg

<?xml version="1.0" encoding="UTF-8" standalone="no"?>
<!-- Created with Inkscape (http://www.inkscape.org/) -->

<svg
   xmlns:dc="http://purl.org/dc/elements/1.1/"
   xmlns:cc="http://creativecommons.org/ns#"
   xmlns:rdf="http://www.w3.org/1999/02/22-rdf-syntax-ns#"
   xmlns:svg="http://www.w3.org/2000/svg"
   xmlns="http://www.w3.org/2000/svg"
   xmlns:xlink="http://www.w3.org/1999/xlink"
   xmlns:sodipodi="http://sodipodi.sourceforge.net/DTD/sodipodi-0.dtd"
   xmlns:inkscape="http://www.inkscape.org/namespaces/inkscape"
   width="360"
   height="360"
   viewBox="0 0 95.249998 95.250003"
   version="1.1"
   id="svg8"
   inkscape:version="0.92.5 (2060ec1f9f, 2020-04-08)"
   sodipodi:docname="khon_w.svg">
  <defs
     id="defs2">
    <linearGradient
       inkscape:collect="always"
       id="linearGradient2491">
      <stop
         style="stop-color:#fff6d5;stop-opacity:1;"
         offset="0"
         id="stop2487" />
      <stop
         style="stop-color:#ffeeaa;stop-opacity:1"
         offset="1"
         id="stop2489" />
    </linearGradient>
    <linearGradient
       inkscape:collect="always"
       xlink:href="#linearGradient2491"
       id="linearGradient2493"
       x1="180"
       y1="155"
       x2="180"
       y2="275"
       gradientUnits="userSpaceOnUse" />
    <linearGradient
       inkscape:collect="always"
       xlink:href="#linearGradient2491"
       id="linearGradient2503"
       x1="180"
       y1="75"
       x2="180"
       y2="135"
       gradientUnits="userSpaceOnUse" />
    <filter
       style="color-interpolation-filters:sRGB;"
       inkscape:label="Drop Shadow"
       id="filter10486">
      <feFlood
         flood-opacity="0.498039"
         flood-color="rgb(0,0,0)"
         result="flood"
         id="feFlood10476" />
      <feComposite
         in="flood"
         in2="SourceGraphic"
         operator="in"
         result="composite1"
         id="feComposite10478" />
      <feGaussianBlur
         in="composite1"
         stdDeviation="3"
         result="blur"
         id="feGaussianBlur10480" />
      <feOffset
         dx="6"
         dy="6"
         result="offset"
         id="feOffset10482" />
      <feComposite
         in="SourceGraphic"
         in2="offset"
         operator="over"
         result="composite2"
         id="feComposite10484" />
    </filter>
  </defs>
  <sodipodi:namedview
     id="base"
     pagecolor="#ffffff"
     bordercolor="#666666"
     borderopacity="1.0"
     inkscape:pageopacity="0.0"
     inkscape:pageshadow="2"
     inkscape:zoom="1.979899"
     inkscape:cx="100.95545"
     inkscape:cy="169.00418"
     inkscape:document-units="mm"
     inkscape:current-layer="layer4"
     showgrid="true"
     units="px"
     inkscape:window-width="1911"
     inkscape:window-height="1007"
     inkscape:window-x="4"
     inkscape:window-y="48"
     inkscape:window-maximized="0">
    <inkscape:grid
       type="xygrid"
       id="grid3721" />
  </sodipodi:namedview>
  <metadata
     id="metadata5">
    <rdf:RDF>
      <cc:Work
         rdf:about="">
        <dc:format>image/svg+xml</dc:format>
        <dc:type
           rdf:resource="http://purl.org/dc/dcmitype/StillImage" />
        <dc:title />
      </cc:Work>
    </rdf:RDF>
  </metadata>
  <g
     inkscape:groupmode="layer"
     id="layer4"
     inkscape:label="Background"
     style="display:inline">
    <path
       style="color:#000000;font-style:normal;font-variant:normal;font-weight:normal;font-stretch:normal;font-size:medium;line-height:normal;font-family:sans-serif;font-variant-ligatures:normal;font-variant-position:normal;font-variant-caps:normal;font-variant-numeric:normal;font-variant-alternates:normal;font-feature-settings:normal;text-indent:0;text-align:start;text-decoration:none;text-decoration-line:none;text-decoration-style:solid;text-decoration-color:#000000;letter-spacing:normal;word-spacing:normal;text-transform:none;writing-mode:lr-tb;direction:ltr;text-orientation:mixed;dominant-baseline:auto;baseline-shift:baseline;text-anchor:start;white-space:normal;shape-padding:0;clip-rule:nonzero;display:inline;overflow:visible;visibility:visible;opacity:1;isolation:auto;mix-blend-mode:normal;color-interpolation:sRGB;color-interpolation-filters:linearRGB;solid-color:#000000;solid-opacity:1;vector-effect:none;fill:#000000;fill-opacity:1;fill-rule:nonzero;stroke:none;stroke-width:5;stroke-linecap:butt;stroke-linejoin:miter;stroke-miterlimit:4;stroke-dasharray:none;stroke-dashoffset:0;stroke-opacity:1;color-rendering:auto;image-rendering:auto;shape-rendering:auto;text-rendering:auto;enable-background:accumulate;filter:url(#filter10486)"
       d="m 177.94141,68.585938 c -11.4212,16.67992 -10.57936,43.040912 -14.96875,63.912112 h -14.51563 l -5,10.00195 h -10 l -5,10.00195 h -9.71875 l -0.7539,1.01172 c -16.9735,23.01963 -18.788214,45.12043 -11.48633,65.61133 7.06503,19.82628 22.33425,38.21068 39.9707,55.875 l -5.00195,5.00195 5.23242,5.23243 L 118.74805,322.5 h -1.25 v 19.99805 H 180 242.50195 V 322.5 h -1.25 L 213.30078,285.23438 218.5332,280.00195 213.53125,275 c 17.63645,-17.66432 32.90567,-36.04872 39.9707,-55.875 7.30188,-20.4909 5.48717,-42.5917 -11.48633,-65.61133 l -0.7539,-1.01172 h -9.71875 l -5,-10.00195 h -10 l -5,-10.00195 h -14.51563 c -4.38939,-20.8712 -3.54755,-47.232192 -14.96875,-63.912112 L 180,70 Z"
       id="path2475"
       transform="scale(0.26458333)"
       inkscape:connector-curvature="0" />
  </g>
  <g
     inkscape:groupmode="layer"
     id="layer5"
     inkscape:label="Fill"
     style="display:inline">
    <path
       style="color:#000000;font-style:normal;font-variant:normal;font-weight:normal;font-stretch:normal;font-size:medium;line-height:normal;font-family:sans-serif;font-variant-ligatures:normal;font-variant-position:normal;font-variant-caps:normal;font-variant-numeric:normal;font-variant-alternates:normal;font-feature-settings:normal;text-indent:0;text-align:start;text-decoration:none;text-decoration-line:none;text-decoration-style:solid;text-decoration-color:#000000;letter-spacing:normal;word-spacing:normal;text-transform:none;writing-mode:lr-tb;direction:ltr;text-orientation:mixed;dominant-baseline:auto;baseline-shift:baseline;text-anchor:start;white-space:normal;shape-padding:0;clip-rule:nonzero;display:inline;overflow:visible;visibility:visible;opacity:1;isolation:auto;mix-blend-mode:normal;color-interpolation:sRGB;color-interpolation-filters:linearRGB;solid-color:#000000;solid-opacity:1;vector-effect:none;fill:url(#linearGradient2503);fill-opacity:1;fill-rule:nonzero;stroke:none;stroke-width:5;stroke-linecap:butt;stroke-linejoin:miter;stroke-miterlimit:4;stroke-dasharray:none;stroke-dashoffset:0;stroke-opacity:1;color-rendering:auto;image-rendering:auto;shape-rendering:auto;text-rendering:auto;enable-background:accumulate"
       d="m 180,74.869141 c 7.67211,14.621881 7.8363,37.709269 11.91211,57.628909 H 180 168.08789 C 172.1637,112.57841 172.32789,89.491022 180,74.869141 Z"
       id="path2473"
       transform="scale(0.26458333)"
       inkscape:connector-curvature="0" />
    <path
       style="color:#000000;font-style:normal;font-variant:normal;font-weight:normal;font-stretch:normal;font-size:medium;line-height:normal;font-family:sans-serif;font-variant-ligatures:normal;font-variant-position:normal;font-variant-caps:normal;font-variant-numeric:normal;font-variant-alternates:normal;font-feature-settings:normal;text-indent:0;text-align:start;text-decoration:none;text-decoration-line:none;text-decoration-style:solid;text-decoration-color:#000000;letter-spacing:normal;word-spacing:normal;text-transform:none;writing-mode:lr-tb;direction:ltr;text-orientation:mixed;dominant-baseline:auto;baseline-shift:baseline;text-anchor:start;white-space:normal;shape-padding:0;clip-rule:nonzero;display:inline;overflow:visible;visibility:visible;opacity:1;isolation:auto;mix-blend-mode:normal;color-interpolation:sRGB;color-interpolation-filters:linearRGB;solid-color:#000000;solid-opacity:1;vector-effect:none;fill:#fff6d5;fill-opacity:1;fill-rule:nonzero;stroke:none;stroke-width:5;stroke-linecap:butt;stroke-linejoin:miter;stroke-miterlimit:4;stroke-dasharray:none;stroke-dashoffset:0;stroke-opacity:1;color-rendering:auto;image-rendering:auto;shape-rendering:auto;text-rendering:auto;enable-background:accumulate"
       d="M 151.54297,137.50195 H 180 208.45703 L 210.95508,142.5 H 180 149.04492 Z"
       id="path2471"
       transform="scale(0.26458333)"
       inkscape:connector-curvature="0" />
    <path
       style="color:#000000;font-style:normal;font-variant:normal;font-weight:normal;font-stretch:normal;font-size:medium;line-height:normal;font-family:sans-serif;font-variant-ligatures:normal;font-variant-position:normal;font-variant-caps:normal;font-variant-numeric:normal;font-variant-alternates:normal;font-feature-settings:normal;text-indent:0;text-align:start;text-decoration:none;text-decoration-line:none;text-decoration-style:solid;text-decoration-color:#000000;letter-spacing:normal;word-spacing:normal;text-transform:none;writing-mode:lr-tb;direction:ltr;text-orientation:mixed;dominant-baseline:auto;baseline-shift:baseline;text-anchor:start;white-space:normal;shape-padding:0;clip-rule:nonzero;display:inline;overflow:visible;visibility:visible;opacity:1;isolation:auto;mix-blend-mode:normal;color-interpolation:sRGB;color-interpolation-filters:linearRGB;solid-color:#000000;solid-opacity:1;vector-effect:none;fill:#fff6d5;fill-opacity:1;fill-rule:nonzero;stroke:none;stroke-width:5;stroke-linecap:butt;stroke-linejoin:miter;stroke-miterlimit:4;stroke-dasharray:none;stroke-dashoffset:0;stroke-opacity:1;color-rendering:auto;image-rendering:auto;shape-rendering:auto;text-rendering:auto;enable-background:accumulate"
       d="M 136.54297,147.49805 H 180 223.45703 l 2.49805,5.0039 H 180 134.04492 Z"
       id="path2469"
       transform="scale(0.26458333)"
       inkscape:connector-curvature="0" />
    <path
       style="color:#000000;font-style:normal;font-variant:normal;font-weight:normal;font-stretch:normal;font-size:medium;line-height:normal;font-family:sans-serif;font-variant-ligatures:normal;font-variant-position:normal;font-variant-caps:normal;font-variant-numeric:normal;font-variant-alternates:normal;font-feature-settings:normal;text-indent:0;text-align:start;text-decoration:none;text-decoration-line:none;text-decoration-style:solid;text-decoration-color:#000000;letter-spacing:normal;word-spacing:normal;text-transform:none;writing-mode:lr-tb;direction:ltr;text-orientation:mixed;dominant-baseline:auto;baseline-shift:baseline;text-anchor:start;white-space:normal;shape-padding:0;clip-rule:nonzero;display:inline;overflow:visible;visibility:visible;opacity:1;isolation:auto;mix-blend-mode:normal;color-interpolation:sRGB;color-interpolation-filters:linearRGB;solid-color:#000000;solid-opacity:1;vector-effect:none;fill:url(#linearGradient2493);fill-opacity:1;fill-rule:nonzero;stroke:none;stroke-width:5;stroke-linecap:butt;stroke-linejoin:miter;stroke-miterlimit:4;stroke-dasharray:none;stroke-dashoffset:0;stroke-opacity:1;color-rendering:auto;image-rendering:auto;shape-rendering:auto;text-rendering:auto;enable-background:accumulate"
       d="M 121.41797,157.5 H 180 238.58203 c 15.47418,21.53885 16.94718,41.04017 10.20899,59.94922 -6.75486,18.95583 -21.95934,37.27387 -39.82618,55.05273 H 180 151.03516 c -17.86684,-17.77886 -33.07132,-36.0969 -39.82618,-55.05273 -6.73819,-18.90905 -5.26519,-38.41037 10.20899,-59.94922 z"
       id="path2467"
       transform="scale(0.26458333)"
       inkscape:connector-curvature="0" />
    <path
       style="color:#000000;font-style:normal;font-variant:normal;font-weight:normal;font-stretch:normal;font-size:medium;line-height:normal;font-family:sans-serif;font-variant-ligatures:normal;font-variant-position:normal;font-variant-caps:normal;font-variant-numeric:normal;font-variant-alternates:normal;font-feature-settings:normal;text-indent:0;text-align:start;text-decoration:none;text-decoration-line:none;text-decoration-style:solid;text-decoration-color:#000000;letter-spacing:normal;word-spacing:normal;text-transform:none;writing-mode:lr-tb;direction:ltr;text-orientation:mixed;dominant-baseline:auto;baseline-shift:baseline;text-anchor:start;white-space:normal;shape-padding:0;clip-rule:nonzero;display:inline;overflow:visible;visibility:visible;opacity:1;isolation:auto;mix-blend-mode:normal;color-interpolation:sRGB;color-interpolation-filters:linearRGB;solid-color:#000000;solid-opacity:1;vector-effect:none;fill:#ffeeaa;fill-opacity:1;fill-rule:nonzero;stroke:none;stroke-width:5;stroke-linecap:butt;stroke-linejoin:miter;stroke-miterlimit:4;stroke-dasharray:none;stroke-dashoffset:0;stroke-opacity:1;color-rendering:auto;image-rendering:auto;shape-rendering:auto;text-rendering:auto;enable-background:accumulate"
       d="M 151.0332,277.5 H 180 208.9668 l 2.49414,2.49609 -2.49414,2.50196 H 180 151.0332 l -2.49414,-2.50196 z"
       id="path2465"
       transform="scale(0.26458333)"
       inkscape:connector-curvature="0" />
    <path
       style="color:#000000;font-style:normal;font-variant:normal;font-weight:normal;font-stretch:normal;font-size:medium;line-height:normal;font-family:sans-serif;font-variant-ligatures:normal;font-variant-position:normal;font-variant-caps:normal;font-variant-numeric:normal;font-variant-alternates:normal;font-feature-settings:normal;text-indent:0;text-align:start;text-decoration:none;text-decoration-line:none;text-decoration-style:solid;text-decoration-color:#000000;letter-spacing:normal;word-spacing:normal;text-transform:none;writing-mode:lr-tb;direction:ltr;text-orientation:mixed;dominant-baseline:auto;baseline-shift:baseline;text-anchor:start;white-space:normal;shape-padding:0;clip-rule:nonzero;display:inline;overflow:visible;visibility:visible;opacity:1;isolation:auto;mix-blend-mode:normal;color-interpolation:sRGB;color-interpolation-filters:linearRGB;solid-color:#000000;solid-opacity:1;vector-effect:none;fill:#ffeeaa;fill-opacity:1;fill-rule:nonzero;stroke:none;stroke-width:5;stroke-linecap:butt;stroke-linejoin:miter;stroke-miterlimit:4;stroke-dasharray:none;stroke-dashoffset:0;stroke-opacity:1;color-rendering:auto;image-rendering:auto;shape-rendering:auto;text-rendering:auto;enable-background:accumulate"
       d="M 151.24805,287.50195 H 180 208.75195 L 234.99805,322.5 H 180 125.00195 Z"
       id="path2463"
       transform="scale(0.26458333)"
       inkscape:connector-curvature="0" />
    <path
       style="color:#000000;font-style:normal;font-variant:normal;font-weight:normal;font-stretch:normal;font-size:medium;line-height:normal;font-family:sans-serif;font-variant-ligatures:normal;font-variant-position:normal;font-variant-caps:normal;font-variant-numeric:normal;font-variant-alternates:normal;font-feature-settings:normal;text-indent:0;text-align:start;text-decoration:none;text-decoration-line:none;text-decoration-style:solid;text-decoration-color:#000000;letter-spacing:normal;word-spacing:normal;text-transform:none;writing-mode:lr-tb;direction:ltr;text-orientation:mixed;dominant-baseline:auto;baseline-shift:baseline;text-anchor:start;white-space:normal;shape-padding:0;clip-rule:nonzero;display:inline;overflow:visible;visibility:visible;opacity:1;isolation:auto;mix-blend-mode:normal;color-interpolation:sRGB;color-interpolation-filters:linearRGB;solid-color:#000000;solid-opacity:1;vector-effect:none;fill:#ffeeaa;fill-opacity:1;fill-rule:nonzero;stroke:none;stroke-width:5;stroke-linecap:butt;stroke-linejoin:miter;stroke-miterlimit:4;stroke-dasharray:none;stroke-dashoffset:0;stroke-opacity:1;color-rendering:auto;image-rendering:auto;shape-rendering:auto;text-rendering:auto;enable-background:accumulate"
       d="M 122.50195,327.49805 H 180 237.49805 V 337.5 H 180 122.50195 Z"
       id="path2404"
       transform="scale(0.26458333)"
       inkscape:connector-curvature="0" />
  </g>
  <g
     inkscape:label="Strokes"
     inkscape:groupmode="layer"
     id="layer1"
     transform="translate(0,-201.74997)"
     style="display:none">
    <path
       style="fill:none;stroke:#000000;stroke-width:1.32291663;stroke-miterlimit:4;stroke-dasharray:none"
       d="M 47.624998,291.7083 H 31.749999 v -3.96875 h 15.875"
       id="path180"
       inkscape:connector-curvature="0" />
    <path
       style="fill:none;stroke:#000000;stroke-width:1.32291663;stroke-miterlimit:4;stroke-dasharray:none"
       d="m 31.749999,287.73955 7.9375,-10.58333"
       id="path184"
       inkscape:connector-curvature="0" />
    <path
       style="fill:none;stroke:#000000;stroke-width:1.32291663;stroke-miterlimit:4;stroke-dasharray:none"
       d="m 47.624998,277.15622 h -7.937499 l -1.322917,-1.32292 1.322917,-1.32291 h 7.937499"
       id="path186"
       inkscape:connector-curvature="0" />
    <path
       style="fill:none;stroke:#000000;stroke-width:1.32291663;stroke-miterlimit:4;stroke-dasharray:none"
       d="m 39.687499,274.51039 c -9.675001,-9.58117 -16.711174,-19.85105 -7.9375,-31.75 h 15.875"
       id="path194"
       inkscape:connector-curvature="0"
       sodipodi:nodetypes="ccc" />
    <path
       style="fill:none;stroke:#000000;stroke-width:1.32291663;stroke-linecap:butt;stroke-linejoin:miter;stroke-miterlimit:4;stroke-dasharray:none;stroke-opacity:1"
       d="m 34.395832,242.76039 1.322917,-2.64584 h 11.90625"
       id="path196"
       inkscape:connector-curvature="0" />
    <path
       style="fill:none;stroke:#000000;stroke-width:1.32291663;stroke-linecap:butt;stroke-linejoin:miter;stroke-miterlimit:4;stroke-dasharray:none;stroke-opacity:1"
       d="m 38.364582,240.11455 1.322917,-2.64583 h 7.9375"
       id="path198"
       inkscape:connector-curvature="0" />
    <path
       style="fill:none;stroke:#000000;stroke-width:1.32291663;stroke-linecap:butt;stroke-linejoin:miter;stroke-miterlimit:4;stroke-dasharray:none;stroke-opacity:1"
       d="m 43.656248,237.46872 c 1.322262,-5.73325 1.061097,-12.95149 3.96875,-17.19792"
       id="path200"
       inkscape:connector-curvature="0"
       sodipodi:nodetypes="cc" />
    <path
       style="fill:none;stroke:#000000;stroke-width:1.32291663;stroke-miterlimit:4;stroke-dasharray:none"
       d="m 47.625,291.7083 h 15.874999 v -3.96875 h -15.875"
       id="path180-3"
       inkscape:connector-curvature="0" />
    <path
       style="fill:none;stroke:#000000;stroke-width:1.32291663;stroke-miterlimit:4;stroke-dasharray:none"
       d="m 63.499999,287.73955 -7.9375,-10.58333"
       id="path184-6"
       inkscape:connector-curvature="0" />
    <path
       style="fill:none;stroke:#000000;stroke-width:1.32291663;stroke-miterlimit:4;stroke-dasharray:none"
       d="m 47.625,277.15622 h 7.937499 l 1.322917,-1.32292 -1.322917,-1.32291 H 47.625"
       id="path186-0"
       inkscape:connector-curvature="0" />
    <path
       style="fill:none;stroke:#000000;stroke-width:1.32291663;stroke-miterlimit:4;stroke-dasharray:none"
       d="m 55.562499,274.51039 c 9.675001,-9.58117 16.711174,-19.85105 7.9375,-31.75 h -15.875"
       id="path194-6"
       inkscape:connector-curvature="0"
       sodipodi:nodetypes="ccc" />
    <path
       style="fill:none;stroke:#000000;stroke-width:1.32291663;stroke-linecap:butt;stroke-linejoin:miter;stroke-miterlimit:4;stroke-dasharray:none;stroke-opacity:1"
       d="m 60.854166,242.76039 -1.322917,-2.64584 h -11.90625"
       id="path196-2"
       inkscape:connector-curvature="0" />
    <path
       style="fill:none;stroke:#000000;stroke-width:1.32291663;stroke-linecap:butt;stroke-linejoin:miter;stroke-miterlimit:4;stroke-dasharray:none;stroke-opacity:1"
       d="m 56.885416,240.11455 -1.322917,-2.64583 h -7.9375"
       id="path198-6"
       inkscape:connector-curvature="0" />
    <path
       style="fill:none;stroke:#000000;stroke-width:1.32291663;stroke-linecap:butt;stroke-linejoin:miter;stroke-miterlimit:4;stroke-dasharray:none;stroke-opacity:1"
       d="M 51.59375,237.46872 C 50.271488,231.73547 50.532653,224.51723 47.625,220.2708"
       id="path200-1"
       inkscape:connector-curvature="0"
       sodipodi:nodetypes="cc" />
  </g>
</svg>

<svg height="360" viewBox="0 0 95.249998 95.250003" width="360" xmlns="http://www.w3.org/2000/svg" xmlns:xlink="http://www.w3.org/1999/xlink"><linearGradient id="a"><stop offset="0" stop-color="#fff6d5"/><stop offset="1" stop-color="#fea"/></linearGradient><linearGradient id="b" gradientUnits="userSpaceOnUse" x1="180" x2="180" xlink:href="#a" y1="155" y2="275"/><linearGradient id="c" gradientUnits="userSpaceOnUse" x1="180" x2="180" xlink:href="#a" y1="75" y2="135"/><filter id="d" color-interpolation-filters="sRGB"><feFlood flood-opacity=".498039" result="flood"/><feComposite in="flood" in2="SourceGraphic" operator="in" result="composite1"/><feGaussianBlur in="composite1" result="blur" stdDeviation="3"/><feOffset dx="6" dy="6" result="offset"/><feComposite in="SourceGraphic" in2="offset" operator="over" result="composite2"/></filter><g transform="scale(.26458333)"><path d="m177.94141 68.585938c-11.4212 16.67992-10.57936 43.040912-14.96875 63.912112h-14.51563l-5 10.00195h-10l-5 10.00195h-9.71875l-.7539 1.01172c-16.9735 23.01963-18.788214 45.12043-11.48633 65.61133 7.06503 19.82628 22.33425 38.21068 39.9707 55.875l-5.00195 5.00195 5.23242 5.23243-27.95117 37.26562h-1.25v19.99805h62.50195 62.50195v-19.99805h-1.25l-27.95117-37.26562 5.23242-5.23243-5.00195-5.00195c17.63645-17.66432 32.90567-36.04872 39.9707-55.875 7.30188-20.4909 5.48717-42.5917-11.48633-65.61133l-.7539-1.01172h-9.71875l-5-10.00195h-10l-5-10.00195h-14.51563c-4.38939-20.8712-3.54755-47.232192-14.96875-63.912112l-2.05859 1.414062z" filter="url(#d)"/><g><path d="m180 74.869141c7.67211 14.621881 7.8363 37.709269 11.91211 57.628909h-11.91211-11.91211c4.07581-19.91964 4.24-43.007028 11.91211-57.628909z" fill="url(#c)"/><path d="m151.54297 137.50195h28.45703 28.45703l2.49805 4.99805h-30.95508-30.95508z" fill="#fff6d5"/><path d="m136.54297 147.49805h43.45703 43.45703l2.49805 5.0039h-45.95508-45.95508z" fill="#fff6d5"/><path d="m121.41797 157.5h58.58203 58.58203c15.47418 21.53885 16.94718 41.04017 10.20899 59.94922-6.75486 18.95583-21.95934 37.27387-39.82618 55.05273h-28.96484-28.96484c-17.86684-17.77886-33.07132-36.0969-39.82618-55.05273-6.73819-18.90905-5.26519-38.41037 10.20899-59.94922z" fill="url(#b)"/><g fill="#fea"><path d="m151.0332 277.5h28.9668 28.9668l2.49414 2.49609-2.49414 2.50196h-28.9668-28.9668l-2.49414-2.50196z"/><path d="m151.24805 287.50195h28.75195 28.75195l26.2461 34.99805h-54.99805-54.99805z"/><path d="m122.50195 327.49805h57.49805 57.49805v10.00195h-57.49805-57.49805z"/></g></g></g></svg>
